src/images/icon-footer.svg

<svg aria-hidden="true" style="position: absolute; width: 0; height: 0; overflow: hidden;" version="1.1" xmlns="http://www.w3.org/2000/svg" xmlns:xlink="http://www.w3.org/1999/xlink">
<defs>
    <!--  Android icon  -->
    <symbol id="icon-android" viewBox="0 0 60 60">
      <circle cx="30" cy="30" r="30" fill="transparent" />
      <path d="M19.9182 39.2294C19.9182 40.1695 20.7142 40.9369 21.6937 40.9369H23.7234V45.7742C23.7234 46.9996 24.7445 48 25.999 48C27.2576 48 28.2745 47.0036 28.2745 45.7742V40.9329H31.8171V45.7702C31.8171 46.9956 32.8382 47.996 34.0927 47.996C35.3514 47.996 36.3683 46.9996 36.3683 45.7702V40.9329H38.398C39.3774 40.9329 40.1735 40.1655 40.1735 39.2254V23.3475H19.9182V39.2294ZM34.8012 15.1193L36.6726 12.5078C36.7809 12.3552 36.7559 12.1503 36.61 12.0498C36.4642 11.9534 36.2558 12.0016 36.1474 12.1543L34.2053 14.8702C32.9258 14.3841 31.5004 14.1149 30.0042 14.1149C28.5079 14.1149 27.0826 14.3841 25.8031 14.8702L23.8609 12.1583C23.7525 12.0056 23.5441 11.9534 23.3983 12.0538C23.2524 12.1503 23.2274 12.3511 23.3358 12.5118L25.2071 15.1233C22.2313 16.4572 20.1474 18.9843 19.8807 21.9373H40.136C39.8609 18.9803 37.7728 16.4532 34.8012 15.1193ZM25.728 19.2374C25.5063 19.2374 25.2896 19.1741 25.1052 19.0553C24.9208 18.9365 24.7771 18.7678 24.6923 18.5703C24.6074 18.3728 24.5852 18.1555 24.6285 17.9458C24.6717 17.7362 24.7785 17.5436 24.9353 17.3925C25.0921 17.2413 25.2919 17.1384 25.5093 17.0967C25.7268 17.055 25.9522 17.0764 26.1571 17.1582C26.3619 17.24 26.537 17.3785 26.6602 17.5562C26.7834 17.734 26.8492 17.9429 26.8492 18.1567C26.8484 18.4431 26.73 18.7176 26.52 18.9201C26.3099 19.1226 26.0252 19.2367 25.728 19.2374ZM34.4136 19.2374C34.1919 19.2374 33.9751 19.1741 33.7908 19.0553C33.6064 18.9365 33.4627 18.7678 33.3779 18.5703C33.293 18.3728 33.2708 18.1555 33.3141 17.9458C33.3573 17.7362 33.4641 17.5436 33.6209 17.3925C33.7777 17.2413 33.9774 17.1384 34.1949 17.0967C34.4124 17.055 34.6378 17.0764 34.8427 17.1582C35.0475 17.24 35.2226 17.3785 35.3458 17.5562C35.469 17.734 35.5348 17.9429 35.5348 18.1567C35.534 18.4431 35.4156 18.7176 35.2055 18.9201C34.9955 19.1226 34.7107 19.2367 34.4136 19.2374ZM43.7244 23.2832C42.4657 23.2832 41.4488 24.2796 41.4488 25.509V34.2033C41.4488 35.4287 42.4699 36.4291 43.7244 36.4291C44.9831 36.4291 46 35.4327 46 34.2033V25.505C46.0042 24.2756 44.9872 23.2832 43.7244 23.2832ZM16.2756 23.2832C15.0169 23.2832 14 24.2796 14 25.509V34.2033C14 35.4287 15.0211 36.4291 16.2756 36.4291C17.5343 36.4291 18.5512 35.4327 18.5512 34.2033V25.505C18.5512 24.2756 17.5301 23.2832 16.2756 23.2832Z" />
    </symbol>
    <!--   Apple icon   -->
    <symbol id="apple" viewBox="0 0 60 60">
      <circle cx="30" cy="30" r="30" fill="transparent" />
      <path d="M37.282 20C34.1313 20 32.7998 21.5138 30.6056 21.5138C28.3559 21.5138 26.6399 20.011 23.9096 20.011C21.2372 20.011 18.3873 21.6538 16.5776 24.4524C14.0364 28.3989 14.4678 35.8316 18.5835 42.1637C20.0557 44.4304 22.0217 46.9725 24.6004 47H24.6473C26.8884 47 27.5541 45.5224 30.6384 45.5051H30.6853C33.7234 45.5051 34.3329 46.9913 36.5646 46.9913H36.6115C39.1902 46.9638 41.2617 44.1471 42.7339 41.8891C43.7935 40.2651 44.1873 39.45 45 37.6129C39.0464 35.3375 38.0899 26.8395 43.9779 23.5814C42.1807 21.3155 39.6551 20.0031 37.2742 20.0031L37.282 20Z" />
      <path d="M36.9358 12C35.1221 12.121 33.0061 13.2553 31.7667 14.7362C30.6422 16.0783 29.7172 18.0692 30.08 20H30.2251C32.1567 20 34.1336 18.8576 35.2883 17.3937C36.4008 16.0004 37.2441 14.0258 36.9358 12Z" />
    </symbol>

    <!--  Facebook icon normal    -->
    <symbol id="icon-facebook" viewBox="0 0 40 40">
      <circle cx="20" cy="20" r="18" fill="transparent" />
      <path d="M24.5007 14.1298H21.6448C21.3063 14.1298 20.9303 14.5751 20.9303 15.1669V17.2292H24.5027L23.9624 20.1702H20.9303V28.9993H17.5598V20.1702H14.502V17.2292H17.5598V15.4994C17.5598 13.0175 19.2816 11.0007 21.6448 11.0007H24.5007V14.1298Z" fill="white" />
    </symbol>
    <!--  Facebook icon hovered    -->
    <symbol id="icon-facebook-hovered" viewBox="0 0 40 40">
      <path d="M24.5006 14.6298H25.0006V14.1298V11.0007V10.5007H24.5006H21.6447C18.9529 10.5007 17.0597 12.797 17.0597 15.4994V16.7292H14.5019H14.0019V17.2292V20.1702V20.6702H14.5019H17.0597V28.9993V29.4993H17.5597H20.9302H21.4302V28.9993V20.6702H23.9623H24.3788L24.4541 20.2606L24.9944 17.3195L25.1028 16.7292H24.5026H21.4302V15.1669C21.4302 14.9752 21.4916 14.8202 21.5633 14.7227C21.6145 14.6531 21.6518 14.6342 21.6612 14.6298H24.5006ZM1.5 20C1.5 9.7826 9.7826 1.5 20 1.5C30.2174 1.5 38.5 9.7826 38.5 20C38.5 30.2174 30.2174 38.5 20 38.5C9.7826 38.5 1.5 30.2174 1.5 20Z" fill="#06071b" />
      <path d="M24.5007 14.1298H21.6448C21.3063 14.1298 20.9303 14.5751 20.9303 15.1669V17.2292H24.5027L23.9624 20.1702H20.9303V28.9993H17.5598V20.1702H14.502V17.2292H17.5598V15.4994C17.5598 13.0175 19.2816 11.0007 21.6448 11.0007H24.5007V14.1298Z" stroke="transparent" stroke-width="2" />
    </symbol>

    <!--  Twitter icon normal    -->
    <symbol id="icon-twitter" viewBox="0 0 40 40">
      <path d="M20 1C9.50646 1 1 9.50646 1 20C1 30.4935 9.50646 39 20 39C30.4935 39 39 30.4935 39 20C39 9.50646 30.4935 1 20 1ZM27.7286 16.5642C27.7366 16.7265 27.7385 16.8888 27.7385 17.0471C27.7385 21.995 23.9761 27.697 17.0926 27.697C15.0586 27.7004 13.0669 27.1162 11.357 26.0147C11.6479 26.0503 11.9468 26.0642 12.2496 26.0642C14.0031 26.0642 15.6161 25.4684 16.8967 24.463C16.1163 24.4477 15.3602 24.1893 14.7337 23.7238C14.1071 23.2584 13.6414 22.6091 13.4015 21.8664C13.9619 21.9729 14.5392 21.9506 15.0897 21.801C14.2427 21.6298 13.481 21.1708 12.9338 20.502C12.3866 19.8333 12.0875 18.9958 12.0873 18.1317V18.0861C12.592 18.3652 13.1699 18.5354 13.7834 18.5552C12.9894 18.0266 12.4273 17.2147 12.2121 16.2854C11.9969 15.3561 12.1448 14.3797 12.6256 13.5558C13.5656 14.7117 14.7379 15.6572 16.0665 16.3312C17.3952 17.0053 18.8505 17.3928 20.3384 17.4686C20.1493 16.6657 20.2307 15.8228 20.57 15.0709C20.9093 14.319 21.4876 13.7003 22.2148 13.3109C22.9421 12.9216 23.7776 12.7834 24.5915 12.9179C25.4053 13.0524 26.152 13.452 26.7153 14.0546C27.5528 13.8889 28.356 13.5817 29.0903 13.1461C28.8112 14.0133 28.2268 14.7496 27.4456 15.2183C28.1875 15.129 28.9119 14.9295 29.595 14.6266C29.0933 15.3784 28.4612 16.0346 27.7286 16.5642Z" fill="transparent" stroke="transparent" />
      <path d="M27.4357 16.1589L27.216 16.3177L27.2292 16.5885C27.2365 16.7392 27.2385 16.8924 27.2385 17.0471C27.2385 21.7802 23.6424 27.197 17.0926 27.197L17.0917 27.197C15.8097 27.1991 14.5453 26.9562 13.3647 26.4877C14.8006 26.289 16.116 25.7116 17.2054 24.8563L18.3079 23.9906L16.9064 23.9631C16.2301 23.9498 15.5748 23.7259 15.0318 23.3225C14.7028 23.078 14.425 22.7751 14.2108 22.4312C14.5511 22.4226 14.8902 22.3733 15.2207 22.2835L15.1887 21.3109C14.4549 21.1625 13.7949 20.7649 13.3207 20.1854C13.006 19.8007 12.786 19.3517 12.6736 18.8742C13.0213 18.9798 13.3881 19.0427 13.7673 19.0549L15.5214 19.1115L14.0605 18.139C13.3726 17.681 12.8856 16.9776 12.6991 16.1725C12.5679 15.606 12.5925 15.0193 12.7637 14.4727C13.6466 15.4118 14.6872 16.1921 15.8403 16.7771C17.2314 17.4828 18.7551 17.8885 20.3129 17.968L20.9777 18.0019L20.8251 17.354C20.6612 16.6583 20.7317 15.928 21.0257 15.2766C21.3197 14.6251 21.8207 14.0891 22.4508 13.7517C23.0809 13.4144 23.8048 13.2947 24.5099 13.4112C25.215 13.5277 25.8619 13.8739 26.35 14.396L26.5398 14.599L26.8123 14.5451C27.164 14.4755 27.51 14.3825 27.8481 14.267C27.6531 14.4675 27.4317 14.6435 27.1883 14.7896L27.5054 15.7147C27.7022 15.691 27.8979 15.66 28.092 15.6219C27.8845 15.8135 27.6654 15.9929 27.4357 16.1589Z" fill="#ffffff" stroke="#ffffff" />
    </symbol>
    <!--  Twitter icon hovered    -->
    <symbol id="icon-twitter-hovered" viewBox="0 0 40 40">
      <path d="M20 1C9.50646 1 1 9.50646 1 20C1 30.4935 9.50646 39 20 39C30.4935 39 39 30.4935 39 20C39 9.50646 30.4935 1 20 1ZM27.7286 16.5642C27.7366 16.7265 27.7385 16.8888 27.7385 17.0471C27.7385 21.995 23.9761 27.697 17.0926 27.697C15.0586 27.7004 13.0669 27.1162 11.357 26.0147C11.6479 26.0503 11.9468 26.0642 12.2496 26.0642C14.0031 26.0642 15.6161 25.4684 16.8967 24.463C16.1163 24.4477 15.3602 24.1893 14.7337 23.7238C14.1071 23.2584 13.6414 22.6091 13.4015 21.8664C13.9619 21.9729 14.5392 21.9506 15.0897 21.801C14.2427 21.6298 13.481 21.1708 12.9338 20.502C12.3866 19.8333 12.0875 18.9958 12.0873 18.1317V18.0861C12.592 18.3652 13.1699 18.5354 13.7834 18.5552C12.9894 18.0266 12.4273 17.2147 12.2121 16.2854C11.9969 15.3561 12.1448 14.3797 12.6256 13.5558C13.5656 14.7117 14.7379 15.6572 16.0665 16.3312C17.3952 17.0053 18.8505 17.3928 20.3384 17.4686C20.1493 16.6657 20.2307 15.8228 20.57 15.0709C20.9093 14.319 21.4876 13.7003 22.2148 13.3109C22.9421 12.9216 23.7776 12.7834 24.5915 12.9179C25.4053 13.0524 26.152 13.452 26.7153 14.0546C27.5528 13.8889 28.356 13.5817 29.0903 13.1461C28.8112 14.0133 28.2268 14.7496 27.4456 15.2183C28.1875 15.129 28.9119 14.9295 29.595 14.6266C29.0933 15.3784 28.4612 16.0346 27.7286 16.5642Z" stroke="transparent" fill="#06071B" />
      <path d="M27.4357 16.1589L27.216 16.3177L27.2292 16.5885C27.2365 16.7392 27.2385 16.8924 27.2385 17.0471C27.2385 21.7802 23.6424 27.197 17.0926 27.197L17.0917 27.197C15.8097 27.1991 14.5453 26.9562 13.3647 26.4877C14.8006 26.289 16.116 25.7116 17.2054 24.8563L18.3079 23.9906L16.9064 23.9631C16.2301 23.9498 15.5748 23.7259 15.0318 23.3225C14.7028 23.078 14.425 22.7751 14.2108 22.4312C14.5511 22.4226 14.8902 22.3733 15.2207 22.2835L15.1887 21.3109C14.4549 21.1625 13.7949 20.7649 13.3207 20.1854C13.006 19.8007 12.786 19.3517 12.6736 18.8742C13.0213 18.9798 13.3881 19.0427 13.7673 19.0549L15.5214 19.1115L14.0605 18.139C13.3726 17.681 12.8856 16.9776 12.6991 16.1725C12.5679 15.606 12.5925 15.0193 12.7637 14.4727C13.6466 15.4118 14.6872 16.1921 15.8403 16.7771C17.2314 17.4828 18.7551 17.8885 20.3129 17.968L20.9777 18.0019L20.8251 17.354C20.6612 16.6583 20.7317 15.928 21.0257 15.2766C21.3197 14.6251 21.8207 14.0891 22.4508 13.7517C23.0809 13.4144 23.8048 13.2947 24.5099 13.4112C25.215 13.5277 25.8619 13.8739 26.35 14.396L26.5398 14.599L26.8123 14.5451C27.164 14.4755 27.51 14.3825 27.8481 14.267C27.6531 14.4675 27.4317 14.6435 27.1883 14.7896L27.5054 15.7147C27.7022 15.691 27.8979 15.66 28.092 15.6219C27.8845 15.8135 27.6654 15.9929 27.4357 16.1589Z" stroke="transparent" fill="#06071B" />
    </symbol>

    <!--  Linkedin icon normal    -->
    <symbol id="icon-linkedin" viewBox="0 0 40 40">
      <path d="M15.349 28.3751H15.849V27.8751V15.4934V14.9934H15.349H11.5015H11.0015V15.4934V27.8751V28.3751H11.5015H15.349ZM15.9756 12.0477H15.9757L15.9755 12.0368C15.9611 11.3785 15.7217 10.7697 15.2715 10.324C14.8194 9.87643 14.1877 9.62594 13.4509 9.62594C12.7157 9.62594 12.0741 9.87523 11.6134 10.3194C11.1526 10.7636 10.9005 11.3766 10.9005 12.0477C10.9005 13.3886 11.9101 14.4734 13.4015 14.4734C14.1611 14.4734 14.81 14.2178 15.2715 13.7679C15.7319 13.3189 15.9756 12.7053 15.9756 12.0477ZM29.401 28.3751H29.901V27.8751V20.5542C29.901 18.6484 29.4044 17.1796 28.5074 16.1819C27.6053 15.1785 26.3527 14.7124 24.9717 14.7124C23.3647 14.7124 22.2038 15.3621 21.456 16.0657L21.392 15.4405L21.346 14.9915H20.8946H17.5518H17.0281L17.0523 15.5146C17.1036 16.6233 17.1527 17.9071 17.1527 19.4419V27.8731V28.3731H17.6527H21.5022H22.0022V27.8731V20.7343C22.0022 20.3818 22.0313 20.1139 22.0935 19.9619L22.0936 19.9619L22.0959 19.9561C22.3308 19.3613 22.82 18.8316 23.6041 18.8316C24.1475 18.8316 24.4717 19.0311 24.6844 19.3506C24.9192 19.7032 25.0535 20.2586 25.0535 21.0133V27.8751V28.3751H25.5535H29.401ZM1.5 20C1.5 9.7826 9.7826 1.5 20 1.5C30.2174 1.5 38.5 9.7826 38.5 20C38.5 30.2174 30.2174 38.5 20 38.5C9.7826 38.5 1.5 30.2174 1.5 20Z" fill="transparent" stroke="transparent" />
      <path d="M28.9009 20.5542V27.3751H26.0534V21.0134C26.0534 20.1709 25.9087 19.3854 25.5166 18.7964C25.1024 18.1743 24.4518 17.8316 23.6039 17.8316C22.2638 17.8316 21.4906 18.7683 21.1667 19.586C21.0243 19.9362 21.0021 20.3793 21.0021 20.7343V27.3732H18.1526V19.4419C18.1526 18.1224 18.1168 16.9866 18.0744 15.9915H20.443L20.5732 17.2623L20.6192 17.7114H21.0706H21.1478H21.4243L21.5713 17.4771C22.0107 16.7768 23.1086 15.7124 24.9715 15.7124C26.1218 15.7124 27.0839 16.0944 27.7637 16.8505C28.4485 17.6123 28.9009 18.8144 28.9009 20.5542ZM14.8488 27.3751H12.0013V15.9935H14.8488V27.3751ZM13.4013 13.4735C12.4623 13.4735 11.9004 12.8364 11.9004 12.0477C11.9004 11.6323 12.0531 11.2844 12.3073 11.0394C12.5615 10.7943 12.9451 10.626 13.4508 10.626C13.9549 10.626 14.3238 10.7931 14.5678 11.0347C14.8128 11.2772 14.9649 11.6274 14.9755 12.0532C14.9742 12.458 14.8262 12.8053 14.5733 13.0519C14.3202 13.2986 13.9321 13.4735 13.4013 13.4735Z" fill="#ffffff" stroke="#ffffff" />
    </symbol>
    <!--  Linkedin icon hovered    -->
    <symbol id="icon-linkedin-hovered" viewBox="0 0 40 40">
      <path d="M15.349 28.3751H15.849V27.8751V15.4934V14.9934H15.349H11.5015H11.0015V15.4934V27.8751V28.3751H11.5015H15.349ZM15.9756 12.0477H15.9757L15.9755 12.0368C15.9611 11.3785 15.7217 10.7697 15.2715 10.324C14.8194 9.87643 14.1877 9.62594 13.4509 9.62594C12.7157 9.62594 12.0741 9.87523 11.6134 10.3194C11.1526 10.7636 10.9005 11.3766 10.9005 12.0477C10.9005 13.3886 11.9101 14.4734 13.4015 14.4734C14.1611 14.4734 14.81 14.2178 15.2715 13.7679C15.7319 13.3189 15.9756 12.7053 15.9756 12.0477ZM29.401 28.3751H29.901V27.8751V20.5542C29.901 18.6484 29.4044 17.1796 28.5074 16.1819C27.6053 15.1785 26.3527 14.7124 24.9717 14.7124C23.3647 14.7124 22.2038 15.3621 21.456 16.0657L21.392 15.4405L21.346 14.9915H20.8946H17.5518H17.0281L17.0523 15.5146C17.1036 16.6233 17.1527 17.9071 17.1527 19.4419V27.8731V28.3731H17.6527H21.5022H22.0022V27.8731V20.7343C22.0022 20.3818 22.0313 20.1139 22.0935 19.9619L22.0936 19.9619L22.0959 19.9561C22.3308 19.3613 22.82 18.8316 23.6041 18.8316C24.1475 18.8316 24.4717 19.0311 24.6844 19.3506C24.9192 19.7032 25.0535 20.2586 25.0535 21.0133V27.8751V28.3751H25.5535H29.401ZM1.5 20C1.5 9.7826 9.7826 1.5 20 1.5C30.2174 1.5 38.5 9.7826 38.5 20C38.5 30.2174 30.2174 38.5 20 38.5C9.7826 38.5 1.5 30.2174 1.5 20Z" stroke="transparent" fill="#06071B" />
      <path d="M28.9009 20.5542V27.3751H26.0534V21.0134C26.0534 20.1709 25.9087 19.3854 25.5166 18.7964C25.1024 18.1743 24.4518 17.8316 23.6039 17.8316C22.2638 17.8316 21.4906 18.7683 21.1667 19.586C21.0243 19.9362 21.0021 20.3793 21.0021 20.7343V27.3732H18.1526V19.4419C18.1526 18.1224 18.1168 16.9866 18.0744 15.9915H20.443L20.5732 17.2623L20.6192 17.7114H21.0706H21.1478H21.4243L21.5713 17.4771C22.0107 16.7768 23.1086 15.7124 24.9715 15.7124C26.1218 15.7124 27.0839 16.0944 27.7637 16.8505C28.4485 17.6123 28.9009 18.8144 28.9009 20.5542ZM14.8488 27.3751H12.0013V15.9935H14.8488V27.3751ZM13.4013 13.4735C12.4623 13.4735 11.9004 12.8364 11.9004 12.0477C11.9004 11.6323 12.0531 11.2844 12.3073 11.0394C12.5615 10.7943 12.9451 10.626 13.4508 10.626C13.9549 10.626 14.3238 10.7931 14.5678 11.0347C14.8128 11.2772 14.9649 11.6274 14.9755 12.0532C14.9742 12.458 14.8262 12.8053 14.5733 13.0519C14.3202 13.2986 13.9321 13.4735 13.4013 13.4735Z" stroke="transparent" fill="#06071B" />
    </symbol>
  </defs>
</svg>

<svg aria-hidden="true" style="position:absolute;width:0;height:0;overflow:hidden" xmlns="http://www.w3.org/2000/svg"><defs><symbol id="icon-android" viewBox="0 0 60 60"><circle cx="30" cy="30" r="30" fill="transparent"/><path d="M19.918 39.23c0 .94.796 1.707 1.776 1.707h2.03v4.837C23.723 47 24.743 48 25.998 48c1.259 0 2.276-.996 2.276-2.226v-4.841h3.542v4.837c0 1.226 1.021 2.226 2.276 2.226 1.258 0 2.275-.996 2.275-2.226v-4.837h2.03c.98 0 1.775-.767 1.775-1.708V23.347H19.918V39.23Zm14.883-24.11 1.872-2.612c.108-.153.083-.358-.063-.458-.146-.097-.354-.048-.463.104l-1.942 2.716a11.843 11.843 0 0 0-4.2-.755c-1.497 0-2.922.27-4.202.755l-1.942-2.712c-.108-.152-.317-.205-.463-.104-.146.096-.17.297-.062.458l1.871 2.611c-2.976 1.334-5.06 3.861-5.326 6.814h20.255c-.275-2.957-2.363-5.484-5.335-6.818Zm-9.073 4.117a1.15 1.15 0 0 1-.623-.182 1.09 1.09 0 0 1-.413-.485 1.044 1.044 0 0 1-.064-.624c.044-.21.15-.402.307-.554a1.16 1.16 0 0 1 1.222-.234c.205.082.38.22.503.398.123.178.19.387.19.6-.002.287-.12.562-.33.764-.21.203-.495.317-.792.317Zm8.686 0a1.15 1.15 0 0 1-.623-.182 1.09 1.09 0 0 1-.413-.485 1.044 1.044 0 0 1-.064-.624c.043-.21.15-.402.307-.554a1.16 1.16 0 0 1 1.222-.234c.204.082.38.22.503.398.123.178.189.387.189.6-.001.287-.12.562-.33.764-.21.203-.494.317-.791.317Zm9.31 4.046c-1.258 0-2.275.997-2.275 2.226v8.694c0 1.226 1.02 2.226 2.275 2.226 1.26 0 2.276-.996 2.276-2.226v-8.698c.004-1.23-1.013-2.222-2.276-2.222Zm-27.448 0c-1.26 0-2.276.997-2.276 2.226v8.694c0 1.226 1.021 2.226 2.276 2.226 1.258 0 2.275-.996 2.275-2.226v-8.698c0-1.23-1.02-2.222-2.275-2.222Z"/></symbol><symbol id="apple" viewBox="0 0 60 60"><circle cx="30" cy="30" r="30" fill="transparent"/><path d="M37.282 20c-3.15 0-4.482 1.514-6.676 1.514-2.25 0-3.966-1.503-6.696-1.503-2.673 0-5.523 1.643-7.332 4.441-2.542 3.947-2.11 11.38 2.006 17.712C20.056 44.43 22.021 46.972 24.6 47h.047c2.241 0 2.907-1.478 5.991-1.495h.047c3.038 0 3.648 1.486 5.88 1.486h.047c2.578-.027 4.65-2.844 6.122-5.102 1.06-1.624 1.453-2.439 2.266-4.276-5.954-2.276-6.91-10.773-1.022-14.032-1.797-2.265-4.323-3.578-6.704-3.578l.008-.003ZM36.936 12c-1.814.121-3.93 1.255-5.17 2.736-1.124 1.342-2.049 3.333-1.686 5.264h.145c1.932 0 3.909-1.142 5.063-2.606C36.401 16 37.244 14.026 36.936 12Z"/></symbol><symbol id="icon-facebook" viewBox="0 0 40 40"><circle cx="20" cy="20" r="18" fill="transparent"/><path d="M24.5 14.13h-2.855c-.339 0-.715.445-.715 1.037v2.062h3.573l-.54 2.941H20.93V29h-3.37v-8.83h-3.058v-2.94h3.058V15.5c0-2.482 1.722-4.5 4.085-4.5H24.5v3.13Z" fill="#fff"/></symbol><symbol id="icon-facebook-hovered" viewBox="0 0 40 40"><path d="M24.5 14.63h.5V10.5h-3.355c-2.692 0-4.585 2.297-4.585 5v1.23h-3.058v3.94h3.058v8.83h4.37v-8.83h2.949l.075-.41.54-2.94.109-.59H21.43v-1.563c0-.192.062-.347.133-.444a.275.275 0 0 1 .098-.093h2.84ZM1.5 20C1.5 9.783 9.783 1.5 20 1.5S38.5 9.783 38.5 20 30.217 38.5 20 38.5 1.5 30.217 1.5 20Z" fill="#06071b"/><path d="M24.5 14.13h-2.855c-.339 0-.715.445-.715 1.037v2.062h3.573l-.54 2.941H20.93V29h-3.37v-8.83h-3.058v-2.94h3.058V15.5c0-2.482 1.722-4.5 4.085-4.5H24.5v3.13Z" stroke="transparent" stroke-width="2"/></symbol><symbol id="icon-twitter" viewBox="0 0 40 40"><path d="M20 1C9.506 1 1 9.506 1 20s8.506 19 19 19 19-8.506 19-19S30.494 1 20 1Zm7.729 15.564c.008.163.01.325.01.483 0 4.948-3.763 10.65-10.646 10.65a10.559 10.559 0 0 1-5.736-1.682c.29.035.59.05.893.05a7.495 7.495 0 0 0 4.647-1.602 3.75 3.75 0 0 1-3.495-2.597 3.76 3.76 0 0 0 1.688-.065 3.744 3.744 0 0 1-3.003-3.67v-.045c.505.28 1.083.45 1.696.47a3.74 3.74 0 0 1-1.157-5 10.639 10.639 0 0 0 7.712 3.913 3.743 3.743 0 0 1 6.377-3.414 7.513 7.513 0 0 0 2.375-.909 3.76 3.76 0 0 1-1.644 2.072 7.52 7.52 0 0 0 2.149-.591 7.589 7.589 0 0 1-1.866 1.937Z" fill="transparent" stroke="transparent"/><path d="m27.436 16.159-.22.159.013.27c.008.151.01.304.01.46 0 4.732-3.597 10.149-10.146 10.149h-.001a10.06 10.06 0 0 1-3.727-.71 7.983 7.983 0 0 0 3.84-1.63l1.103-.866-1.402-.028a3.25 3.25 0 0 1-2.695-1.532c.34-.008.68-.058 1.01-.148l-.032-.972a3.245 3.245 0 0 1-2.515-2.437c.347.106.714.169 1.093.18l1.754.058-1.46-.973a3.241 3.241 0 0 1-1.297-3.666 11.142 11.142 0 0 0 7.549 3.495l.665.034-.153-.648a3.242 3.242 0 0 1 5.525-2.958l.19.203.272-.054a8.02 8.02 0 0 0 1.036-.278c-.195.2-.416.377-.66.523l.317.925a8.03 8.03 0 0 0 .587-.093 7.083 7.083 0 0 1-.656.537Z" fill="#fff" stroke="#fff"/></symbol><symbol id="icon-twitter-hovered" viewBox="0 0 40 40"><path d="M20 1C9.506 1 1 9.506 1 20s8.506 19 19 19 19-8.506 19-19S30.494 1 20 1Zm7.729 15.564c.008.163.01.325.01.483 0 4.948-3.763 10.65-10.646 10.65a10.559 10.559 0 0 1-5.736-1.682c.29.035.59.05.893.05a7.495 7.495 0 0 0 4.647-1.602 3.75 3.75 0 0 1-3.495-2.597 3.76 3.76 0 0 0 1.688-.065 3.744 3.744 0 0 1-3.003-3.67v-.045c.505.28 1.083.45 1.696.47a3.74 3.74 0 0 1-1.157-5 10.639 10.639 0 0 0 7.712 3.913 3.743 3.743 0 0 1 6.377-3.414 7.513 7.513 0 0 0 2.375-.909 3.76 3.76 0 0 1-1.644 2.072 7.52 7.52 0 0 0 2.149-.591 7.589 7.589 0 0 1-1.866 1.937Z" stroke="transparent" fill="#06071B"/><path d="m27.436 16.159-.22.159.013.27c.008.151.01.304.01.46 0 4.732-3.597 10.149-10.146 10.149h-.001a10.06 10.06 0 0 1-3.727-.71 7.983 7.983 0 0 0 3.84-1.63l1.103-.866-1.402-.028a3.25 3.25 0 0 1-2.695-1.532c.34-.008.68-.058 1.01-.148l-.032-.972a3.245 3.245 0 0 1-2.515-2.437c.347.106.714.169 1.093.18l1.754.058-1.46-.973a3.241 3.241 0 0 1-1.297-3.666 11.142 11.142 0 0 0 7.549 3.495l.665.034-.153-.648a3.242 3.242 0 0 1 5.525-2.958l.19.203.272-.054a8.02 8.02 0 0 0 1.036-.278c-.195.2-.416.377-.66.523l.317.925a8.03 8.03 0 0 0 .587-.093 7.083 7.083 0 0 1-.656.537Z" stroke="transparent" fill="#06071B"/></symbol><symbol id="icon-linkedin" viewBox="0 0 40 40"><path d="M15.349 28.375h.5V14.993h-4.848v13.382h4.348Zm.627-16.327v-.011c-.015-.659-.254-1.267-.705-1.713-.452-.448-1.083-.698-1.82-.698-.735 0-1.377.25-1.838.693a2.369 2.369 0 0 0-.713 1.729c0 1.34 1.01 2.425 2.502 2.425.76 0 1.408-.255 1.87-.705.46-.45.704-1.063.704-1.72ZM29.4 28.375h.5v-7.82c0-1.907-.497-3.375-1.394-4.373-.902-1.003-2.154-1.47-3.535-1.47-1.607 0-2.768.65-3.516 1.354l-.064-.625-.046-.45h-4.318l.024.524c.052 1.108.1 2.392.1 3.927v8.931h4.85v-7.639c0-.352.03-.62.091-.772l.003-.006c.235-.595.724-1.124 1.508-1.124.544 0 .868.2 1.08.519.235.352.37.908.37 1.662v7.362H29.4ZM1.5 20C1.5 9.783 9.783 1.5 20 1.5S38.5 9.783 38.5 20 30.217 38.5 20 38.5 1.5 30.217 1.5 20Z" fill="transparent" stroke="transparent"/><path d="M28.9 20.554v6.821h-2.847v-6.362c0-.842-.144-1.628-.536-2.217-.415-.622-1.065-.964-1.913-.964-1.34 0-2.113.936-2.437 1.754-.143.35-.165.793-.165 1.148v6.64h-2.85v-7.932c0-1.32-.035-2.455-.078-3.45h2.369l.13 1.27.046.45h.805l.147-.235c.44-.7 1.538-1.765 3.4-1.765 1.15 0 2.113.382 2.793 1.139.684.761 1.137 1.963 1.137 3.703ZM14.85 27.375H12V15.993h2.848v11.382ZM13.4 13.473c-.939 0-1.5-.637-1.5-1.425 0-.416.152-.764.406-1.009.255-.245.638-.413 1.144-.413.504 0 .873.167 1.117.409.245.242.397.592.408 1.018-.002.405-.15.752-.403.999s-.64.421-1.172.421Z" fill="#fff" stroke="#fff"/></symbol><symbol id="icon-linkedin-hovered" viewBox="0 0 40 40"><path d="M15.349 28.375h.5V14.993h-4.848v13.382h4.348Zm.627-16.327v-.011c-.015-.659-.254-1.267-.705-1.713-.452-.448-1.083-.698-1.82-.698-.735 0-1.377.25-1.838.693a2.369 2.369 0 0 0-.713 1.729c0 1.34 1.01 2.425 2.502 2.425.76 0 1.408-.255 1.87-.705.46-.45.704-1.063.704-1.72ZM29.4 28.375h.5v-7.82c0-1.907-.497-3.375-1.394-4.373-.902-1.003-2.154-1.47-3.535-1.47-1.607 0-2.768.65-3.516 1.354l-.064-.625-.046-.45h-4.318l.024.524c.052 1.108.1 2.392.1 3.927v8.931h4.85v-7.639c0-.352.03-.62.091-.772l.003-.006c.235-.595.724-1.124 1.508-1.124.544 0 .868.2 1.08.519.235.352.37.908.37 1.662v7.362H29.4ZM1.5 20C1.5 9.783 9.783 1.5 20 1.5S38.5 9.783 38.5 20 30.217 38.5 20 38.5 1.5 30.217 1.5 20Z" stroke="transparent" fill="#06071B"/><path d="M28.9 20.554v6.821h-2.847v-6.362c0-.842-.144-1.628-.536-2.217-.415-.622-1.065-.964-1.913-.964-1.34 0-2.113.936-2.437 1.754-.143.35-.165.793-.165 1.148v6.64h-2.85v-7.932c0-1.32-.035-2.455-.078-3.45h2.369l.13 1.27.046.45h.805l.147-.235c.44-.7 1.538-1.765 3.4-1.765 1.15 0 2.113.382 2.793 1.139.684.761 1.137 1.963 1.137 3.703ZM14.85 27.375H12V15.993h2.848v11.382ZM13.4 13.473c-.939 0-1.5-.637-1.5-1.425 0-.416.152-.764.406-1.009.255-.245.638-.413 1.144-.413.504 0 .873.167 1.117.409.245.242.397.592.408 1.018-.002.405-.15.752-.403.999s-.64.421-1.172.421Z" stroke="transparent" fill="#06071B"/></symbol></defs></svg>
